X:40
T:Miss Galvin's
Z: id:dc-hornpipe-36
M:C|
L:1/8
K:D Mixolydian
fe|d2cA GEE2|DAFA DAFA|dBcA GEEA|(3B^cd ef g2fe|!
d2cA GEE2|DAFA DAFA|dBcA GEEA|(3B^cd ec d2|]!
fe|fgaf d2de|fgaf gbag|fgaf dcAB|cAA2 g2fe|!
fgaf d2de|fgaf gbag|fAeA dcAd|(3B^cd ef g2|]!

